section-3/dashed_strip.svg

<svg width="754" height="6889" viewBox="0 0 754 6889" fill="none" xmlns="http://www.w3.org/2000/svg">
<path d="M28.0065 1C19.1731 9.5 1.40647 32.4 1.00647 56C0.606475 79.6 18.8398 122.5 28.0065 141C36.5066 161.5 52.5068 212.5 48.5068 252.5C44.5068 292.5 27.5068 435.5 19.5068 502C18.8402 520.667 25.1068 571.3 55.5068 624.5C85.9068 677.7 34.5 820.5 17.0068 891C13.0068 908.833 9.40684 957.1 27.0068 1007.5C44.6068 1057.9 44.6735 1123.5 42.5068 1150C38.6735 1176.5 48.5068 1249.5 118.507 1329.5C188.507 1409.5 286.674 1478.5 327.007 1503C372.007 1520 467.807 1568 491.007 1624C514.207 1680 477.674 1765.67 456.507 1801.5C457.674 1841.5 484.607 1936.5 583.007 1996.5C681.407 2056.5 722.674 2126.83 731.007 2154.5C736.507 2185.5 716.225 2265.34 731.007 2359C744.5 2444.5 723.5 2541 704.507 2541C656.507 2541 729 2689 656.507 2718.5C597.636 2742.46 593 2900.5 567 2952C471 3091 305.707 2918.3 226.507 2893.5C147.307 2868.7 77.5068 2954.5 52.5068 3000.5C41.0068 3051.83 1.25063 3175.04 16.5068 3249.5C33 3330 22 3390.5 40.5068 3399C63.5 3433.5 38.7214 3517.03 19 3561.5C-4.50684 3614.5 16.6735 3707.5 40.5068 3736.5C48.6735 3741.67 16.8881 3820.34 10 3832.5C-7 3862.5 82.5 3872 113 3902C123 3942 253.6 3945.2 336 3902C418.4 3858.8 451 3889.67 461 3889.5C489 3889.67 543.2 3768 572 3812C600.8 3856 667.84 3837.17 680.507 3830C704.674 3826 749.407 3839.9 735.007 3927.5C720.607 4015.1 730.5 4064 737.5 4085C745.276 4108.33 771.807 4156.8 727.007 4208C682.207 4259.2 673.674 4319.67 675.007 4343.5C675.34 4364 658.807 4404.1 590.007 4400.5C521.207 4396.9 452.674 4380.33 427.007 4372.5C406.007 4369.83 351.307 4375.7 300.507 4420.5C249.707 4465.3 173.007 4462.17 141.007 4455C120.507 4449 74.8068 4447.5 56.0068 4489.5C37.2068 4531.5 27.1735 4623.33 24.5068 4664C24.0068 4670 26.3068 4688.9 39.5068 4716.5C52.7068 4744.1 33.5 4796 26.5 4815.5C14.5 4846.83 -15.9 4917.2 16.5 4968C48.9 5018.8 40.5 5077 35.5 5100.5C28.8333 5118 38.1068 5162.5 10.5068 5198.5C-17.0932 5234.5 26.0068 5328.83 51.0068 5371.5C53.8402 5392.5 54.6068 5442.1 35.0068 5472.5C15.4068 5502.9 15.5 5609 29 5660C31.8333 5689.17 10.4622 5772.94 35.0068 5854C61.5 5941.5 31 6044.5 15.5 6118C-24 6234 278.6 6292.7 315 6355.5C351.4 6418.3 514.674 6376.17 525.007 6394.5C534.174 6407.67 562.407 6436.1 602.007 6444.5C641.607 6452.9 596.667 6590.83 615.5 6603C617.5 6624.67 604.7 6668.2 537.5 6669C453.5 6670 417 6685 419.5 6697C422 6709 489 6705.5 478 6728.5C467 6751.5 370.5 6776 370.5 6795.5C370.5 6811.1 396.5 6827.33 409.5 6833.5C416.5 6836 428.9 6850.4 422.5 6888" stroke="#6C6C6C" stroke-width="2" stroke-dasharray="3 8"/>
</svg>

<svg xmlns="http://www.w3.org/2000/svg" width="754" height="6889" fill="none"><path stroke="#6C6C6C" stroke-dasharray="3 8" stroke-width="2" d="M28.006 1c-8.833 8.5-26.6 31.4-27 55-.4 23.6 17.834 66.5 27 85 8.5 20.5 24.5 71.5 20.5 111.5s-21 183-29 249.5c-.666 18.667 5.6 69.3 36 122.5S34.5 820.5 17.007 891c-4 17.833-7.6 66.1 10 116.5 17.6 50.4 17.667 116 15.5 142.5-3.833 26.5 6 99.5 76.001 179.5 70 80 168.167 149 208.5 173.5 45 17 140.8 65 164 121 23.2 56-13.333 141.67-34.5 177.5 1.167 40 28.1 135 126.5 195s139.667 130.33 148 158c5.5 31-14.782 110.84 0 204.5 13.493 85.5-7.507 182-26.5 182-48 0 24.493 148-48 177.5C597.636 2742.46 593 2900.5 567 2952c-96 139-261.293-33.7-340.493-58.5-79.2-24.8-149 61-174 107-11.5 51.33-51.256 174.54-36 249C33 3330 22 3390.5 40.507 3399 63.5 3433.5 38.72 3517.03 19 3561.5c-23.507 53-2.326 146 21.507 175 8.166 5.17-23.619 83.84-30.507 96-17 30 72.5 39.5 103 69.5 10 40 140.6 43.2 223 0s115-12.33 125-12.5c28 .17 82.2-121.5 111-77.5 28.8 44 95.84 25.17 108.507 18 24.167-4 68.9 9.9 54.5 97.5-14.4 87.6-4.507 136.5 2.493 157.5 7.776 23.33 34.307 71.8-10.493 123-44.8 51.2-53.333 111.67-52 135.5.333 20.5-16.2 60.6-85 57-68.8-3.6-137.333-20.17-163-28-21-2.67-75.7 3.2-126.5 48s-127.5 41.67-159.5 34.5c-20.5-6-66.2-7.5-85 34.5-18.8 42-28.833 133.83-31.5 174.5-.5 6 1.8 24.9 15 52.5s-6.007 79.5-13.007 99c-12 31.33-42.4 101.7-10 152.5s24 109 19 132.5c-6.667 17.5 2.607 62-24.993 98-27.6 36 15.5 130.33 40.5 173 2.833 21 3.6 70.6-16 101C15.407 5502.9 15.5 5609 29 5660c2.833 29.17-18.538 112.94 6.007 194C61.5 5941.5 31 6044.5 15.5 6118-24 6234 278.6 6292.7 315 6355.5c36.4 62.8 199.674 20.67 210.007 39 9.167 13.17 37.4 41.6 77 50 39.6 8.4-5.34 146.33 13.493 158.5 2 21.67-10.8 65.2-78 66-84 1-120.5 16-118 28s69.5 8.5 58.5 31.5-107.5 47.5-107.5 67c0 15.6 26 31.83 39 38 7 2.5 19.4 16.9 13 54.5"/></svg>
